X:1
T:Old 107th, CMD
T:Louis Bourgeois, 1543
T:Old 107th, CMD
T:Public Domain
C:Louis Bourgeois, 1543
Z:Public Domain
%%score ( 1 2 ) ( 3 4 )
L:1/8
M:none
K:C
V:1 treble 
V:2 treble 
V:3 bass 
V:4 bass 
V:1
 [A,D]4 [A,D]4 [DA]4 | [Fd]2 [Gd]2 [Ec]2 [Ec]2 | [DA]8 [DA]4 | [D_B]2 [CA]2 [A,F]4 [CG]4 x4 | %4
 [CF]8 | [A,D]4 [A,D]4 [DA]4 | [Fd]2 [Gd]2 [Ec]2 [Ec]2 | [DA]8 [DF]4 | [EG]2 A2 [DF]4 E2 ^C2 | D8 | %10
 [Fd]4 [FA]2 [GB]2 [Gc]2 [G-d]2 | G2 A2- A2 ^G2 | A8 [Fd]4 | [Ge]2 [^Fd]2 F2 z2 z2 ^G2 x4 | %14
 [EA]8 [FA]4 | [Gc]2 [GB]2 [EA]2 [FA]2 [FG]2 [EG]2 | [CF]8 [DF]4 | [EG]2 [FA]2 E2 D2- D2 ^C2 | %18
 D8 |] %19
V:2
 x12 | x8 | x12 | x16 | x8 | x12 | x8 | x12 | x2 E4 E4 x2 | D8 | x12 | c4 B4 | A8 x4 | %13
 x4 A4 A4 B4 | x12 | x12 | x12 | x4 G4 E4 | D8 |] %19
V:3
 F,4 [D,F,]4 [D,F,]4 | [D,A,]2 [G,,_B,]2 [A,,A,]2 [A,,A,]2 | [D,^F,]8 [D,=F,]4 | %3
 [G,,G,]2 [A,,E,]2 D,2 z2 z2 E,2 x4 | [F,,F,]8 | [D,F,]4 [D,F,]4 [D,F,]4 | %6
 [D,A,]2 [G,,_B,]2 [A,,A,]2 [A,,A,]2 | [D,^F,]8 [D,A,]4 | [C,C]2 [A,,C]2 [D,A,]4 [A,,A,]4 | %9
 [D,A,]8 | [D,A,]4 [D,D]2 [G,D]2 [C,E]2 [B,,D]2 | [E,E]4 [E,E]4 | [A,,^C]8 [D,A,]4 | %13
 [C,C]2 [D,A,]2 [D,D]2 [A,,C]2 [E,B,]4 x4 | [A,,^C]8 [D,D]4 | %15
 [C,E]2 [E,D]2 [A,C]2 [A,,C]2 [C,C]2 [C,G,]2 | [F,A,]8 [D,A,]4 | [C,C]2 [F,,C]2 [G,,B,]4 [A,,A,]4 | %18
 [D,A,]8 |] %19
V:4
 F,4 x8 | x8 | x12 | x4 D,4 F,4 C,4 | x8 | x12 | x8 | x12 | x12 | x8 | x12 | x8 | x12 | x16 | x12 | %15
 x12 | x12 | x12 | x8 |] %19

